packages/ffe-icons/icons/open/400/sm/car_repair.svg

<svg xmlns="http://www.w3.org/2000/svg" height="20" viewBox="0 -960 960 960" width="20"><path d="M480.211-144Q465-144 454.5-154.35 444-164.7 444-180v-84H228.28q-15.28 0-25.78-10.289-10.5-10.29-10.5-25.5Q192-315 202.344-325.5q10.345-10.5 25.637-10.5h503.727Q747-336 757.5-325.711q10.5 10.29 10.5 25.5Q768-285 757.65-274.5 747.3-264 732-264H516v84q0 15.3-10.289 25.65-10.29 10.35-25.5 10.35ZM371.789-516Q387-516 397.5-526.289q10.5-10.29 10.5-25.5Q408-567 397.711-577.5q-10.29-10.5-25.5-10.5Q357-588 346.5-577.711q-10.5 10.29-10.5 25.5Q336-537 346.289-526.5q10.29 10.5 25.5 10.5Zm216 0Q603-516 613.5-526.289q10.5-10.29 10.5-25.5Q624-567 613.711-577.5q-10.29-10.5-25.5-10.5Q573-588 562.5-577.711q-10.5 10.29-10.5 25.5Q552-537 562.289-526.5q10.29 10.5 25.5 10.5ZM276.211-384Q261-384 250.5-394.35 240-404.7 240-420v-191q0-6.65 1.5-12.825Q243-630 245-636l49-133q8-21 26.529-34 18.53-13 41.471-13h237q22.941 0 41.471 13Q659-790 667-769l49 133q2 5.769 3 12.019T720-611v191q0 15.3-10.289 25.65-10.29 10.35-25.5 10.35Q669-384 658.5-394.35 648-404.7 648-420v-12H312v12q0 15.3-10.289 25.65-10.29 10.35-25.5 10.35ZM335-672h291l-26-72H362l-27 72Zm-23 72v105-105Zm0 96h336v-96H312v96Z"/></svg>

<svg xmlns="http://www.w3.org/2000/svg" height="20" viewBox="0 -960 960 960" width="20"><path d="M480.21-144q-15.21 0-25.71-10.35T444-180v-84H228.28q-15.28 0-25.78-10.29-10.5-10.29-10.5-25.5t10.34-25.71q10.35-10.5 25.64-10.5h503.73q15.29 0 25.79 10.29t10.5 25.5q0 15.21-10.35 25.71T732-264H516v84q0 15.3-10.29 25.65Q495.42-144 480.21-144ZM371.79-516q15.21 0 25.71-10.29t10.5-25.5q0-15.21-10.29-25.71t-25.5-10.5q-15.21 0-25.71 10.29t-10.5 25.5q0 15.21 10.29 25.71t25.5 10.5Zm216 0q15.21 0 25.71-10.29t10.5-25.5q0-15.21-10.29-25.71t-25.5-10.5q-15.21 0-25.71 10.29t-10.5 25.5q0 15.21 10.29 25.71t25.5 10.5ZM276.21-384q-15.21 0-25.71-10.35T240-420v-191q0-6.65 1.5-12.83Q243-630 245-636l49-133q8-21 26.53-34T362-816h237q22.94 0 41.47 13Q659-790 667-769l49 133q2 5.77 3 12.02t1 12.98v191q0 15.3-10.29 25.65Q699.42-384 684.21-384t-25.71-10.35Q648-404.7 648-420v-12H312v12q0 15.3-10.29 25.65Q291.42-384 276.21-384ZM335-672h291l-26-72H362l-27 72Zm-23 72v105-105Zm0 96h336v-96H312v96Z"/></svg>
